svg/media/skip_previous_line.svg

<?xml version="1.0" encoding="UTF-8"?>
<svg width="24px" height="24px" viewBox="0 0 24 24" version="1.1" xmlns="http://www.w3.org/2000/svg" xmlns:xlink="http://www.w3.org/1999/xlink">
    <title>skip_previous_line</title>
    <g id="页面-1" stroke="none" stroke-width="1" fill="none" fill-rule="evenodd">
        <g id="Media" transform="translate(-1152.000000, 0.000000)">
            <g id="skip_previous_line" transform="translate(1152.000000, 0.000000)">
                 <path d="M24,0 L24,24 L0,24 L0,0 L24,0 Z M12.5934901,23.257841 L12.5819402,23.2595131 L12.5108777,23.2950439 L12.4918791,23.2987469 L12.4918791,23.2987469 L12.4767152,23.2950439 L12.4056548,23.2595131 C12.3958229,23.2563662 12.3870493,23.2590235 12.3821421,23.2649074 L12.3780323,23.275831 L12.360941,23.7031097 L12.3658947,23.7234994 L12.3769048,23.7357139 L12.4804777,23.8096931 L12.4953491,23.8136134 L12.4953491,23.8136134 L12.5071152,23.8096931 L12.6106902,23.7357139 L12.6232938,23.7196733 L12.6232938,23.7196733 L12.6266527,23.7031097 L12.609561,23.275831 C12.6075724,23.2657013 12.6010112,23.2592993 12.5934901,23.257841 L12.5934901,23.257841 Z M12.8583906,23.1452862 L12.8445485,23.1473072 L12.6598443,23.2396597 L12.6498822,23.2499052 L12.6498822,23.2499052 L12.6471943,23.2611114 L12.6650943,23.6906389 L12.6699349,23.7034178 L12.6699349,23.7034178 L12.678386,23.7104931 L12.8793402,23.8032389 C12.8914285,23.8068999 12.9022333,23.8029875 12.9078286,23.7952264 L12.9118235,23.7811639 L12.8776777,23.1665331 C12.8752882,23.1545897 12.8674102,23.1470016 12.8583906,23.1452862 L12.8583906,23.1452862 Z M12.1430473,23.1473072 C12.1332178,23.1423925 12.1221763,23.1452606 12.1156365,23.1525954 L12.1099173,23.1665331 L12.0757714,23.7811639 C12.0751323,23.7926639 12.0828099,23.8018602 12.0926481,23.8045676 L12.108256,23.8032389 L12.3092106,23.7104931 L12.3186497,23.7024347 L12.3186497,23.7024347 L12.3225043,23.6906389 L12.340401,23.2611114 L12.337245,23.2485176 L12.337245,23.2485176 L12.3277531,23.2396597 L12.1430473,23.1473072 Z" id="MingCute" fill-rule="nonzero"></path>
                <path d="M17.7721,11.9958 C17.7721,9.82815 17.6501,8.09739 17.5444,7.00424 C16.5423,7.46114 14.9792,8.22301 13.1072,9.30376 C11.2354,10.3845 9.79412,11.3572 8.89736,11.9966 C9.78579,12.63 11.2173,13.5947 13.1081,14.6864 C14.9998,15.7785 16.5515,16.5361 17.5443,16.9887 C17.65,15.8956 17.7721,14.1643 17.7721,11.9958 Z M17.5853,4.8004 C18.4042,4.45291 19.322,4.98218 19.4315,5.86489 C19.5446,6.77697 19.7721,8.98468 19.7721,11.9958 C19.7721,15.0086 19.5444,17.2171 19.4313,18.1282 C19.3218,19.0105 18.405,19.5388 17.5872,19.1929 C16.7465,18.8373 14.7395,17.9377 12.1081,16.4184 C9.47761,14.8997 7.69529,13.6118 6.96658,13.0612 C6.25749,12.5254 6.25709,11.4662 6.96771,10.9306 C7.70284,10.3765 9.50857,9.07205 12.1072,7.57171 C14.7054,6.07168 16.7376,5.16015 17.5853,4.8004 Z M4.00004,6.00007 C4.00004,5.44779 4.44776,5.00007 5.00004,5.00007 C5.55233,5.00007 6.00004,5.44779 6.00004,6.00007 L6.00004,18.0001 C6.00004,18.5524 5.55233,19.0001 5.00004,19.0001 C4.44776,19.0001 4.00004,18.5524 4.00004,18.0001 L4.00004,6.00007 Z" id="形状" fill="#09244B"></path>
            </g>
        </g>
    </g>
</svg>

<svg xmlns="http://www.w3.org/2000/svg" width="24" height="24"><g fill="none" fill-rule="evenodd"><path d="M24 0v24H0V0h24ZM12.593 23.258l-.011.002-.071.035-.02.004-.014-.004-.071-.035c-.01-.004-.019-.001-.024.005l-.004.01-.017.428.005.02.01.013.104.074.015.004.012-.004.104-.074.012-.016.004-.017-.017-.427c-.002-.01-.009-.017-.017-.018Zm.265-.113-.013.002-.185.093-.01.01-.003.011.018.43.005.012.008.007.201.093c.012.004.023 0 .029-.008l.004-.014-.034-.614c-.003-.012-.01-.02-.02-.022Zm-.715.002a.023.023 0 0 0-.027.006l-.006.014-.034.614c0 .012.007.02.017.024l.015-.002.201-.093.01-.008.004-.011.017-.43-.003-.012-.01-.01-.184-.092Z"/><path fill="#09244B" d="M17.772 11.996c0-2.168-.122-3.899-.228-4.992a52.852 52.852 0 0 0-4.437 2.3 52.854 52.854 0 0 0-4.21 2.693c.889.633 2.32 1.598 4.211 2.69a52.804 52.804 0 0 0 4.436 2.302c.106-1.093.228-2.825.228-4.993ZM17.585 4.8a1.332 1.332 0 0 1 1.846 1.065c.114.912.341 3.12.341 6.13 0 3.014-.228 5.222-.34 6.133a1.332 1.332 0 0 1-1.845 1.065c-.84-.356-2.847-1.255-5.479-2.775-2.63-1.518-4.413-2.806-5.141-3.357a1.332 1.332 0 0 1 0-2.13c.736-.554 2.542-1.859 5.14-3.36 2.598-1.5 4.63-2.41 5.478-2.77ZM4 6a1 1 0 0 1 2 0v12a1 1 0 1 1-2 0V6Z"/></g></svg>
